src/assets/icons/open.svg

<svg xmlns="http://www.w3.org/2000/svg"  viewBox="0 0 24 24" width="30px" height="30px"><path d="M 5 3 C 3.9069372 3 3 3.9069372 3 5 L 3 19 C 3 20.093063 3.9069372 21 5 21 L 19 21 C 20.093063 21 21 20.093063 21 19 L 21 12 L 19 12 L 19 19 L 5 19 L 5 5 L 12 5 L 12 3 L 5 3 z M 14 3 L 14 5 L 17.585938 5 L 8.2929688 14.292969 L 9.7070312 15.707031 L 19 6.4140625 L 19 10 L 21 10 L 21 3 L 14 3 z"/></svg>

<svg xmlns="http://www.w3.org/2000/svg" xmlns:xlink="http://www.w3.org/1999/xlink" viewBox="0,0,256,256" width="24px" height="24px"><g fill="#ffffff" fill-rule="nonzero" stroke="none" stroke-width="1" stroke-linecap="butt" stroke-linejoin="miter" stroke-miterlimit="10" stroke-dasharray="" stroke-dashoffset="0" font-family="none" font-weight="none" font-size="none" text-anchor="none" style="mix-blend-mode: normal"><g transform="scale(10.66667,10.66667)"><path d="M5,3c-1.09306,0 -2,0.90694 -2,2v14c0,1.09306 0.90694,2 2,2h14c1.09306,0 2,-0.90694 2,-2v-7h-2v7h-14v-14h7v-2zM14,3v2h3.58594l-9.29297,9.29297l1.41406,1.41406l9.29297,-9.29297v3.58594h2v-7z"></path></g></g></svg>
